X:12264
T:Oh Dear What Can The Matter Be. JC.012
M:6/8
L:1/8
Q:120
S:John Clare,Poet,Helpston. (1793-1864)
R:Air
O:England
A:Northamptonshire
N:Modern practice would have the dotted minims as two dotted crotchets
N:slurred, to ease readability. CGP.
Z:P Headford
K:D
e3e3|eca ecA|d6|dBc dcB|!e6|eca ecA|FAd cdB|
A3z2:|!
|:e|ecd ecd|eca ecA|dBc dBc|dBc dcB|!
ecd ecd|eca ecA|FAd cdB|A6:|]
W:Song text exists. See Deacon.


